X:53
T:Prince Edwards Delight. Ru2.053
%%VWML:RutherfordVol2-2249-p27-0
F:http://www.vwml.org/record/RutherfordVol2/2249/p27
L:1/8
B:RUTHERFORD Complete Collection of 200 Country Dances Vol.2; 1759.
Z:vmp. Peter Dunk 2015
Q:3/8=100
K:G
gdB G2G|AFG ABA|BAG ded|cBA B2G|gdB G2G|
AFG ABA|ABA d2d|cBA G3::gab e2e|fga d2d|
gdB G2B|AFG A3|gab e2e|fga d2d|gdB G2B|AGF G3:|
W:
W:Cast off & hands across with the 3d Cu: .| cast up and left
W:hands across with the 2d Cu: :| lead down 2 Cu: & cast up
W:into the 2d Cu: place .|. Hands round 6 :|
T:Hampshire Hunt. Ru2.054, The
M:6/8
L:1/8
B:RUTHERFORD Complete Collection of 200 Country Dances Vol.2; 1759.
Z:vmp. Peter Dunk 2015
Q:3/8=100
K:Bb
D2E FGA|BAG F2E|Ddc BAG|c3C3|D2E FGA|
BAG F2E|Ded cBA|B3 B,3::def B2d|c2e A3|
BAB GcB|A3 F3|fga bag|f2e d2e|fdB cAF|B3 B,3:|
W:
W:First and 2d Cu: foot it right & left half round .| the same back again :|
W:lead down one Cu: foot it mand turn yout partner .|. lead to the top
W: & cast off :||: Foot it corners and turn .||. lead out sides and turn :|
